X: 48
T: The Palomino Waltz
C:Phil Cunningham
M:3/4
L:1/4
K:C
E/>G/ |: (A2 A/)>G/ |(c c/)>d/ c/>A/ |G (A  A/)>c/| A2 G | e2 d/>e/|
(g  g/)>a/ g/>e/ | d (e e/)>g/ |(e  e/)>g/ c'/>g/ | (a  a/)>c'/ a/>e/|
(g2 g/)>b/ a/>g/ |(e e/)>c/ A/>G/|(e2 e/)>d/ c/>A/| F2  A/>B/ |
(c2 c/)>A/ F/>A/ |1 (G3 | G2) E/>G/ :|2 (G3 | G) e/>d/ e/>g/ ||
|: (e3 | e/>)g/ e/>d/ c/>A/ | (F2 F/>)G/ | (F F/>)A/ G/>F/|
E/>^G/ B/>d/ e/>^g/ | b/>e'/ d'/>c'/ b/>c'/ | b (a2 a/>)b/| c'2 _b |
(a2 a/>)^g/ a/>b/ | c' b>a | g/>a/ g/>e/ c/>d/ | (e e/>)d/ c/>A/ |
(F F/)>G/ A/>B/ |(c c/)>A/ F/>A/|1 (G3| G/)>d/ e/>d/ e/>g/ :|2 (G3 G2) ||

%%sep 2 1 500

